!!!!SEGMENT: pl-kk--kk-i-10--021-002_anonim--missa-paschalis-et-in-terra.krn
!!!id: 16xx:1218
!!!COM: Anonim
!!!COM-rism: pe30004985
!!!CDT:
!!!CNT:
!!!OTL: Missa Paschalis – Et in terra
!!!PDT:
!!!SMS-siglum: PL-Kk
!!!SMS-shelfmark: Kk.I.10
!!!NIFC-rismID: 1001154021
!!!URL-scan: http://repozytorium.nifc.pl/skany/pl-kk-nut--i-10
!!!ONB-nifc: UWAGA: części Mszy: 1. Kyrie, 2. Et in terra, 3. Patrem, 4. Sanctus, 5. Agnus Dei. A (skan 0035-0038), T (0083-0087), B (0133-0136). W księdze II zaklejone częściowo papierem fragmenty zapisanej partii T. Następny utwór: Missa alia Paschalis
!!!SMS-variant:
!!!SMS-altvar:
**kern	**text	**kern	**text	**kern	**text
*part3	*part3	*part2	*part2	*part1	*part1
*staff3	*staff3	*staff2	*staff2	*staff1	*staff1
*I"Bassus.	*	*I"Tenor	*	*I"altuſ.	*
*I'B	*	*I'T	*	*I'A	*
*clefF4	*	*clefC4	*	*clefC3	*
*k[]	*	*k[]	*	*k[]	*
*M3/2	*	*M3/2	*	*M3/2	*
=1-	=1-	=1-	=1-	=1-	=1-
2r	.	2r	.	2r	.
!	!	!	!	!LO:TX:a:t=P:problem:# above	!
2D/	Et	2d\	Et	2f#X\	Et
2D/	in	2d\	in	2f#\	in
=2-	=2-	=2-	=2-	=2-	=2-
2D/	ter-	2d\	ter-	2f#X\	ter-
2D/	-ra	2d\	-ra	2f#\	-ra
2BB/	in	2d\	in	2g\	in
=3-	=3-	=3-	=3-	=3-	=3-
4AA/	ter-	2.e\	ter-	2.a\	ter-
4BB/	.	.	.	.	.
4C/	.	.	.	.	.
4D/	.	4e\	-ra	4a\	-ra
2E\	-ra	2e\	pax	2g\	pax
=4-	=4-	=4-	=4-	=4-	=4-
2F\	pax	2c\	ho-	2fny\	ho-
2D/	ho-	2d\	-mi-	2.f\	-mi-
4E\	-mi-	2B\	-ni-	.	.
4E\	-ni-	.	.	4e\	-ni-
=5-	=5-	=5-	=5-	=5-	=5-
1.AA	-b(us)	1.c	-b(us)	1e	-b(us)
.	.	.	.	4e\	bo-
!	!	!	!	!LO:TX:t=P:problem:kreska pseudotaktowa	!
.	.	.	.	4e\	-nae
=6-	=6-	=6-	=6-	=6-	=6-
4A\	bo-	4e\	bo-	4a\	bo-
4A\	-nae	4e\	-nae	4a\	-nae
4E\	Vo-	4e\	Vo-	4g\	vo-
4E\	-lun-	4e\	-lun-	4g\	-lun-
2F\	-ta-	2c\	-ta-	2f\	-ta-
=7-	=7-	=7-	=7-	=7-	=7-
1.C	-tis	1.c	-tis	1e	-tiſ
*	*	*	*	*	*ij
.	.	.	.	4e\	bo-
!	!	!	!	!LO:TX:t=P:problem:kreska pseudotaktowa	!
.	.	.	.	4e\	-nae
=8-	=8-	=8-	=8-	=8-	=8-
*	*ij	*	*ij	*	*
4F\	bo-	4c\	bo-	4f\	bo-
4F\	-nae	4c\	-nae	4f\	-nae
4C/	Vo-	4c\	Vo-	4e\	vo-
4C/	-lun-	4c\	-lun-	4e\	-lun-
2D/	-ta-	2A/	-ta-	2d\	-ta-
=9-	=9-	=9-	=9-	=9-	=9
!	!	!	!	!LO:TX:a:t=P:problem:# above	!
!	!	!	!	!LO:LB:g=original	!
1.AA	-tis	1.A	-tis	1.c#X	-tiſ
*	*Xij	*	*Xij	*	*Xij
=10-	=10-	=10-	=10-	=10-	=10-
!LO:LB:g=original	!	!LO:LB:g=original	!	!	!
2FF/	lau-	2d\	lau-	2d\	lau-
2GG/	-da-	2.e\	-da-	2d\	-da-
2AA/	-m(us)	.	.	2c#/	-m(us)
.	.	4A\	-m(us)	.	.
=11-	=11-	=11-	=11-	=11-	=11-
1D	Te	1A	te	1d	te
4D/	be-	4d\	be-	4f\	be-
4D/	-ne-	4d\	-ne-	4f\	-ne-
=12-	=12-	=12-	=12-	=12-	=12-
2.D/	-di-	2.d\	-di-	2.f\	-di-
4D/	-ci-	4d\	-ci-	4f\	-ci-
2E\	-m(us)	2B\	-m(us)	2e\	-m(us)
=13-	=13-	=13-	=13-	=13-	=13-
2F\	te	2A/	te	2cny/	te
2D/	a-	2d\	a-	2f\	a-
2E\	-do-	(4B\	-do-	2e\	-do-
.	.	4G/)	.	.	.
=14-	=14-	=14-	=14-	=14-	=14-
2F\	-ra-	(4c\	-ra-	2c/	-ra-
.	.	4A\)	.	.	.
2D/	.	1B	-m(us)	2f\	.
2E/	-m(us)	.	.	2e\	-m(us)
=15-	=15-	=15-	=15-	=15-	=15-
!	!	!LO:TX:a:t=vi	!	!	!
1.AA	Te	1.c	te	1.e	Te
=16-	=16-	=16-	=16-	=16-	=16-
!	!	!LO:TX:a:t=de	!	!	!
2A\	glo-	2e\	glo-	2a\	glo-
4E\	-ri-	4e\	-ri-	4g\	-ri-
4E\	-fi-	4e\	-fi-	4g\	-fi-
2F\	-ca-	4c\	-ca-	2f\	-ca-
.	.	4c\	-m(us)	.	.
=17-	=17-	=17-	=17-	=17-	=17-
!	!	!LO:SIC:v:t=custos c	!	!	!
1.C	-m(us)	1.c	te	1.e	-m(us)
=18-	=18-	=18-	=18-	=18-	=18-
*	*ij	*	*	*	*ij
2F\	glo-	2c\	glo-	2f\	a-
4C/	-ri-	4c\	-ri-	4e\	-do-
4C/	-fi-	4c\	-fi-	4e\	-ra-
2D/	-ca-	2B\	-ca-	2d\	-mus
=19-	=19-	=19-	=19-	=19-	=19-
1AA	-mus	1A	-m(us)	1c#X	Te
*	*	*	*ij	*	*
2AA/	glo-	2A/	glo-	2c#/	glo-
=20-	=20-	=20-	=20-	=20-	=20-
!	!	!	!	!LO:LB:g=original	!
4FF/	-ri-	4d\	-ri-	4d\	-ri-
4FF/	-fi-	4d\	-fi-	4d\	-fi-
2GG/	-ca-	2.e\	-ca-	2d\	-ca-
2AA/	-mus	.	.	2c#/	-mus
*	*Xij	*	*	*	*Xij
.	.	4A/	-m(us)	.	.
*	*	*	*Xij	*	*
=21-	=21-	=21-	=21-	=21-	=21-
!LO:LB:g=original	!	!	!	!	!
2D/	te	2A/	te	2d\	Te
4D/	gra-	4d\	gra-	4f\	gra-
4D/	-ti-	4d\	-ti-	4f\	-ti-
2GG/	-aſ	2d\	-aſ	2g\	-aſ
=22-	=22-	=22-	=22-	=22-	=22-
!	!	!LO:LB:g=original	!	!	!
2.D\	a-	2.d\	a-	2.f\	a-
4D/	-gi-	4d\	-gi-	4f\	-gi-
2AA/	-m(us)	2c\	-m(us)	2e\	-m(us)
=23-	=23-	=23-	=23-	=23-	=23-
2.GG/	ti-	(2.B\	ti-	1.g	ti-
4AA/	.	4c\)	.	.	.
4BB/	.	2d\	-bi	.	.
4C/	.	.	.	.	.
=24-	=24-	=24-	=24-	=24-	=24-
1D	.	2d\	pro-	1.f	-bi
.	.	1A	-pter	.	.
2D/	-bi	.	.	.	.
=25-	=25-	=25-	=25-	=25-	=25-
1D	pro-	1d	ma-	1f	pro-
2AA/	-pter	2c\	-gna(m)	2f\	-pter
=26-	=26-	=26-	=26-	=26-	=26-
1C	ma-	1c	Ma-	1e	Ma-
2FF/	-gna(m)	2c\	-gna(m)	2f\	-gna(m)
=27-	=27-	=27-	=27-	=27-	=27-
2C/	gl(o-	2c\	gl(o-	2g\	glo-
4C/	-ri)-	4c\	-ri)-	4e\	-ri-
4C/	-a(m)	4c\	-am	4e\	-a(m)
2D/	tu-	2B\	tu-	2d\	tu-
=28-	=28-	=28-	=28-	=28-	=28-
1.D	-a(m)	1.B	-a(m)	1.d	-a(m)
=29-	=29-	=29-	=29-	=29-	=29-
2.C/	D(o-	2.c\	D(o-	2.e\	D(o-
4C/	-mi)-	4c\	-mi)-	4e\	-mi)-
2GG/	-ne	2B\	-ne	2d\	-ne
=30-	=30-	=30-	=30-	=30-	=30-
1BB	De-	1B	DE-	1d	De-
2C/	-(us)	2G,/	-us	2e\	-(us)
=31-	=31-	=31-	=31-	=31-	=31-
2.D/	Rex	2.d\	Rex	2f\	Rex
.	.	.	.	2f\	Cae-
4D/	Cae-	4A/	cae-	.	.
!	!	!	!	!LO:SIC:v:t=custos f	!
2C/	-le-	2c\	-le-	2e\	-le-
=32-	=32-	=32-	=32-	=32-	=32-
!	!	!	!	!LO:LB:g=original	!
1.FF	-ſtis	1.c	-ſtis	1.f	-ſtis
=33-	=33-	=33-	=33-	=33-	=33-
!LO:LB:g=original	!	!LO:LB:g=original	!	!	!
1F	De-	1c	De-	1f	DE-
2D\	-(us)	2d\	-(us)	2f\	-(us)
=34-	=34-	=34-	=34-	=34-	=34-
1C	P(a-	1e	Pa-	1e	P(a-
2D/	-te)r	2A/	-ter	2d\	-te)r
=35-	=35-	=35-	=35-	=35-	=35-
2GG/	o(m-	2B-X\	om-	2d\	o(m-
2.AA/	-n)i-	2.A/	-ni-	2d\	-n)i-
!	!	!	!	!LO:TX:a:t=P:problem:# above	!
.	.	.	.	2c#X/	-po-
4AA/	-po-	4A/	-po-	.	.
=36-	=36-	=36-	=36-	=36-	=36-
1D	-tenſ	1A	-tenſ	1d	-tens
2D/	o(m-	2A/	om-	2d\	o(m-
=37-	=37-	=37-	=37-	=37-	=37-
1AA	-n)i-	1A	-ni-	1d	-n)i-
!	!	!	!	!LO:TX:a:t=P:problem:# above	!
2AA/	-po-	2A/	-po-	2c#X/	-po-
=38-	=38-	=38-	=38-	=38-	=38-
2D/	-tenſ	4A/	-tens	4d\	-tenſ
.	.	2A/	D(o-	2f\	D(o-
4D/	D(o-	.	.	.	.
4E\	.	4A/	-mi)-	4f\	-mi)-
4F\	-mi)-	2A/	-ne	2d\	-ne
4G\	-ne	.	.	.	.
=39-	=39-	=39-	=39-	=39-	=39-
2.A\	Fi-	2A/	Fi-	2.cny\	Fi-
.	.	2c\	-li	.	.
4A\	-li	.	.	4d\	-li
2E\	V-	2Bny\	V-	2e\	V-
=40-	=40-	=40-	=40-	=40-	=40-
2F\	-ni-	2d\	-ni-	2d\	-ni-
2G\	-ge-	2.e\	-ge-	2d\	-ge-
!	!	!	!	!LO:TX:a:t=P:problem:# above	!
2A\	-ni-	.	.	2c#X/	-ni-
.	.	4A/	-ni-	.	.
=41-	=41-	=41-	=41-	=41-	=41-
*M2/1	*	*M2/1	*	*M2/1	*
*met(C|)	*	*met(C|)	*	*met(C|)	*
2D/	-te	2A/	-te	2d\	-te
1F	Je-	2.c\	Je-	1f	Je-
.	.	4c\	-ſu	.	.
2D/	-ſv	1d\	Chri-	2f\	-ſi
=42-	=42-	=42-	=42-	=42-	=42-
1AA	X-	.	.	4a\	CHri-
.	.	.	.	8g\L	.
.	.	.	.	8f\J	.
!	!	!LO:SIC:v:t=custos d	!	!	!
.	.	2c#X\	.	2e\	.
!	!	!LO:LB:g=original	!	!	!
1D	-(t)e	1d	-ſte	2f\	ſte
!	!	!	!	!LO:LB:g=original	!
.	.	.	.	2d\	Je-
=43-	=43-	=43-	=43-	=43-	=43-
*	*	*	*ij	*	*
2BB-X/	JE-	2.d\	Je-	2f\	-ſu
!LO:TX:t=P:problem:♯ above	!	!	!	!	!
2F#X\	-SV	.	.	2.a\	Chri-
.	.	4A/	-ſu	.	.
!LO:LB:g=original	!	!LO:TX:T=P:problem:LO:SIC:v:s=4.B-?	!	!	!
2G\	Chri-	4.B\	Chri-	.	.
.	.	.	.	8g\L	.
!	!	!	!	!LO:TX:t=P:problem:LO:SIC:v:s=8f#?	!
.	.	8cny\	.	8f\J	.
2GG/	.	2d\	.	2g\	.
=44-	=44-	=44-	=44-	=44-	=44-
!	!	!	!	!LO:TX:t=P:problem:LO:SIC:v:s=2f#?	!
2D/	-ſte	2d\	-ſte	2f\	-ſte
*	*	*	*Xij	*	*
2r	.	2r	.	2r	.
1r	.	0r	.	2r	.
.	.	.	.	4e\	D(o-
.	.	.	.	8e\	-mi)-
.	.	.	.	8e\	-ne
=45-	=45-	=45-	=45-	=45-	=45-
2r	.	.	.	8f\	DE-
.	.	.	.	8f\	-(us)
.	.	.	.	8f\	a-
.	.	.	.	8f\	-gn(us)
4AA/	D(o-	.	.	1e	De-
8AA/	-mi)-	.	.	.	.
8AA/	-ne	.	.	.	.
8C/	De-	4r	.	.	.
8C/	-(us)	.	.	.	.
8C/	a-	4.A/	Fi-	.	.
8C/	-gn(us)	.	.	.	.
2BBny/	De-	.	.	2d\	-i
.	.	8A/	-li-	.	.
.	.	4G/	-(us)	.	.
=46-	=46-	=46-	=46-	=46-	=46-
4AA/	-i	4F/	Pa-	2r	.
4.A\	Fi-	4D/	.	.	.
*	*	*	*	*	*ij
.	.	2E/	.	4B/	Do-
8A\	-li-	.	.	.	.
4G\	-(us)	.	.	8B/	-mi-
.	.	.	.	8B/	-ne
4.Fny\	Pa-	4A/	-tris	8d\	De-
.	.	.	.	8d\	-us
*	*	*	*ij	*	*
.	.	4.A/	Fi-	4A/	a-
8G\	.	.	.	.	.
4A\	.	.	.	4A/	-gnus
.	.	8A/	-li-	.	.
4AA/	-tris	4A/	-us	8cny\L	De-
.	.	.	.	8d\J	.
=47-	=47-	=47-	=47-	=47-	=47-
2E\	Pa-	4B\	Pa-	4e\	.
.	.	4E/	.	4A/	-i
*	*	*	*	*	*Xij
2F\	.	2G/	-tris	4r	.
*	*	*	*Xij	*	*
.	.	.	.	4.a\	FI-
2C/	-tris	2r	.	.	.
.	.	.	.	8a\	-li-
.	.	.	.	4g\	-(us)
4r	.	4d\	D(o-	2f\	Pa-
4.D/	Fi-	8d\	-mi)-	.	.
.	.	8d\	-ne	.	.
=48-	=48-	=48-	=48-	=48-	=48-
!	!	!	!	!LO:LB:g=original	!
.	.	8e\	De-	4e\	.
8D/	-li-	8e\	-(us)	.	.
4C/	-(us)	8e\	a-	4c\	.
.	.	8e\	-gn(us)	.	.
!	!	!LO:LB:g=original	!	!	!
2BB/	Fi-	2d\	De-	4d\	.
.	.	.	.	4G/	-tris
2AA/	-li-	2c\	-i	2r	.
!LO:SIC:v:t=custos AA	!	!	!	!	!
2GG/	-(us)	4d\	Fi-	2.g\	Fi-
.	.	8d\	-li-	.	.
.	.	8d\	-(us)	.	.
=49-	=49-	=49-	=49-	=49-	=49-
!LO:LB:g=original	!	!LO:TX:t=P:problem:♯ above	!	!	!
0AA	Pa-	4.c#X\	Pa-	.	.
.	.	.	.	4g\	-li-
.	.	16B\LL	.	.	.
.	.	16c#\JJ	.	.	.
.	.	1d	.	2f\	-(us)
.	.	.	.	1e	Pa-
!	!	!LO:TX:t=P:problem:♯ above	!	!	!
.	.	2c#X\	.	.	.
=50-	=50-	=50-	=50-	=50-	=50-
1D	-tris	1d	-tris	1f#X	-tris
=51-	=51-	=51-	=51-	=51-	=51-
*M3/2	*	*M3/2	*	*M3/2	*
1D	Qvi	1d	Qvi	1f#X	Qvi
2BB/	tol-	2d\	tol-	2g\	tol-
=52-	=52-	=52-	=52-	=52-	=52-
4AA/	-lis	1e	-liſ	1a	-lis
4BB/	.	.	.	.	.
4C/	pec-	.	.	.	.
4D/	.	.	.	.	.
2E\	-ca-	2e\	pec-	2g\	pec-
=53-	=53-	=53-	=53-	=53-	=53-
2F\	-ta	2cny\	-ca-	2.fny\	-ca-
2D\	mun-	2d\	-ta	.	.
.	.	.	.	4f\	-ta
2E\	.	2B\	mun-	2e\	Mun-
=54-	=54-	=54-	=54-	=54-	=54-
1AA	-di	2c#X\	-di	1.e	-di
.	.	2e\	Mi-	.	.
!LO:TX:t=P:problem:kreska pseudotaktowa	!	!LO:TX:t=P:problem:♯ above	!	!	!
2A\	Mi-	2c#X\	-ſe-	.	.
=55-	=55-	=55-	=55-	=55-	=55-
!LO:SIC:v:s=2F#	!	!	!	!	!
2F\	-ſe-	1.d	-re-	2f#X\	Mi-
1G	-re-	.	.	2d\	-ſe-
.	.	.	.	1g\	-re-
=56-	=56-	=56-	=56-	=56-	=56-
2E\	-re	4e\	.	.	.
.	.	4d\	.	.	.
1F	Mi-	4cny\	.	1fny	.
.	.	4B\	.	.	.
.	.	2c\	.	.	.
=57-	=57-	=57-	=57-	=57-	=57-
2C/	-ſe-	2c\	-re	2e\	.
1D	-re-	1A	no-	1d	-re
=58-	=58-	=58-	=58-	=58-	=58-
!	!	!	!	!LO:TX:t=P:problem:LO:SIC:v:s=2.c#?	!
2.AA/	-re	1.A	-bis	2.c\	no-
4BB/	.	.	.	4d\	.
!LO:TX:t=P:problem:LO:SIC:v:s=2C#?	!	!	!	!LO:SIC:v:t=custos f	!
2C/	no-	.	.	2e\	-bis
=59-	=59-	=59-	=59-	=59-	=59-
!	!	!LO:LB:g=original	!	!LO:LB:g=original	!
2D/	-biſ	1A	qui	1f	qvi
4D\	qvi	.	.	.	.
4E\	.	.	.	.	.
4F\	.	2A/	tol-	2d\	tol-
!LO:SIC:v:t=custos A	!	!	!	!	!
4G\	.	.	.	.	.
=60-	=60-	=60-	=60-	=60-	=60-
!LO:PB:g=original	!	!	!	!	!
2A\	tol-	2A/	-lis	2.c/	-lis
2A\	-liſ	2d\	pec-	.	.
.	.	.	.	4d\	.
2E\	pec-	2B\	-ca-	2e\	pec-
=61-	=61-	=61-	=61-	=61-	=61-
2F\	-ca-	2d\	-ta	2d\	-ca-
2G\	-ta	2.e\	Mun-	2d\	-ta
2A\	Mun-	.	.	2c#X/	Mun-
.	.	4A/	.	.	.
=62-	=62-	=62-	=62-	=62-	=62-
1.D	-di	1.A	-di	1.d	-di
=63-	=63-	=63-	=63-	=63-	=63-
2.D/	Su-	2.F/	Su-	2.f\	Su-
4D/	-ſci-	4A/	-ſci-	4f\	-ſci-
2D/	-pe	2A/	-pe	2f\	-pe
=64-	=64-	=64-	=64-	=64-	=64-
*	*ij	*	*	*	*ij
2.AA/	Su-	2.A/	Su-	2.e\	Su-
4AA/	-ſci-	4A/	-ſci-	4e\	-ſci-
2D/	-pe	2F/	-pe	2f\	-pe
*	*	*	*	*	*Xij
=65-	=65-	=65-	=65-	=65-	=65-
*	*	*	*ij	*	*
2.BB-X/	Su-	2.F/	Su-	2.f\	Su-
4BB-/	-ſci-	4F/	-ſci-	4f\	-ſci-
2FF/	-pe	2F/	-pe	2f\	-pe
=66-	=66-	=66-	=66-	=66-	=66-
*	*	*	*	*	*ij
2.C/	Su-	2.G/	Su-	2.e\	Su-
4C/	-ſci-	4G/	-ſci-	4e\	-ſci-
2FF/	-pe	2F/	-pe	2f\	-pe
*	*Xij	*	*Xij	*	*Xij
=67-	=67-	=67-	=67-	=67-	=67-
!	!	!	!	!LO:N:vis=1	!
2.F\	de-	2.A/	de-	1.r	.
4F\	-pre-	4A/	-pre-	.	.
4F\	-ca-	4A/	-ca-	.	.
4F\	-ti-	4A/	-ti-	.	.
=68-	=68-	=68-	=68-	=68-	=68-
1D	-o-	1A	-o-	2.f\	de-
.	.	.	.	4f\	-pre-
2D\	-ne(m)	2A/	-ne(m)	4f\	-ca-
.	.	.	.	4f\	-ti-
=69-	=69-	=69-	=69-	=69-	=69-
*	*ij	*	*ij	*	*
2.G\	de-	2.B\	de-	1d	-o-
4G\	-pre-	4B\	-pre-	.	.
!	!	!LO:LB:g=original	!	!	!
4G\	-ca-	4B\	-ca-	2d\	-ne(m)
!	!	!LO:TX:t=P:problem:kreska pseudotaktowa	!	!	!
4G\	-ti-	4B\	-ti-	.	.
=70-	=70-	=70-	=70-	=70-	=70-
*	*	*	*	*	*ij
!LO:LB:g=original	!	!	!	!	!
1E	-o-	1B	-o-	2.g\	de-
.	.	.	.	4g\	-pre-
2E\	-nem	2B\	-nem	4g\	-ca-
*	*Xij	*	*Xij	*	*
!	!	!	!	!LO:SIC:v:t=custos f	!
.	.	.	.	4g\	-ti-
=71-	=71-	=71-	=71-	=71-	=71-
!	!	!	!	!LO:PB:g=original	!
2F\	no-	(<2A/	no-	2f\	-o-
2G\	.	(>2B\)	.	2e\	-nem
*	*	*	*	*	*Xij
2A\	.	2A/)	.	2e\	no-
=72-	=72-	=72-	=72-	=72-	=72-
1D	-ſtra(m)	1A	-stra(m)	1f	-ſra(m)
2D/	qvi	2A/	qvi	2d\	qvi
=73-	=73-	=73-	=73-	=73-	=73-
2F\	Se-	2.f\	Se-	2a\	SE-
2F\	-deſ	.	.	2a\	-deſ
.	.	4f\	-deſ	.	.
!	!	!	!	!LO:TX:t=P:problem:LO:SIC:v:s=2f?	!
2A\	ad	2f\	ad	2e\	ad
=74-	=74-	=74-	=74-	=74-	=74-
!	!	!	!	!LO:N:vis=1.	!
2.E\	dex-	1e	dex-	1g	dex-
4F\	-te-	.	.	.	.
2G\	.	2e\	-te-	2g\	-te-
=75-	=75-	=75-	=75-	=75-	=75-
2D,</	-ra(m)	1d	-ra(m)	2f\	-ra(m)
2GG/	Pa-	.	.	1e	Pa-
2AA/	.	2c\	Pa-	.	.
=76-	=76-	=76-	=76-	=76-	=76-
1.D	-tris	2d\	-tris	2d\	-tris
.	.	2F/	Mi-	2d\	Mi-
.	.	2G/	-ſe-	2B/	-ſe-
=77-	=77-	=77-	=77-	=77-	=77-
!	!	!	!	!LO:SIC:v:s=4A	!
0.r	.	1A	-re-	4G/	-re-
.	.	.	.	4B/	.
.	.	.	.	4cny/	.
.	.	.	.	4d/	.
.	.	2G/	-re	2e\	.
=78-	=78-	=78-	=78-	=78-	=78-
.	.	1c	no-	2c\	-re
.	.	.	.	2d\	no-
.	.	2B\	.	2e\	.
=79-	=79-	=79-	=79-	=79-	=79-
!LO:TX:t=P:problem:brak taktu	!	!	!	!	!
1.ryy	.	2A/	-biſ	1.A	-bis
!	!	!LO:TX:t=P:problem:brak taktu	!	!	!
.	.	1ryy	.	.	.
.	.	.	.	.	.
=80-	=80-	=80-	=80-	=80-	=80-
!	!	!	!	!LO:TX:t=P:problem:wartość pomienięta	!
2r	.	2ryy	.	2ryy	.
2A\	Mi-	2d\	Mi-	1r	.
!LO:TX:t=P:problem:♯ above	!	!	!	!	!
2F#X\	-ſe-	2d\	-ſe-	.	.
=81-	=81-	=81-	=81-	=81-	=81-
1G	-re-	1B	-re-	1r	.
!	!	!LO:SIC:v:t=custos A	!	!	!
2E\	-re	2c\	-re	2e\	mi-
=82-	=82-	=82-	=82-	=82-	=82-
*	*	*	*ij	*	*
!	!	!LO:LB:g=original	!	!	!
2.Fny\	no-	2.A/	Mi-	2.c\	-ſe-
4E\	.	8B\L	-se-	8d\L	.
.	.	8c\J	.	8e\J	.
4D\	.	2d\	-re-	2f\	-re-
!LO:SIC:v:t=custos F	!	!	!	!	!
4E\	.	.	.	.	.
=83-	=83-	=83-	=83-	=83-	=83-
!LO:LB:g=original	!	!	!	!	!
2F\	.	1d	-re	2f\	-re
*	*	*	*Xij	*	*
2G\	.	.	.	1e	no-
2A\	biſ	2c\	no-	.	.
=84-	=84-	=84-	=84-	=84-	=84-
!	!	!	!	!LO:LB:g=original	!
2D/	qvo-	2d\	-biſ	2d\	-bis
4D/	-ni-	4d\	qvo-	2f\	q(u)o-
4D/	-a(m)	4d\	-ni-	.	.
2D/	tu	2d\	-a(m)	4f\	-ni-
.	.	.	.	4f\	-a(m)
=85-	=85-	=85-	=85-	=85-	=85-
2AA/	.	2e\	tu	2e\	tu
2AA/	so-	2e\	So-	2e\	ſo-
2AA/	-l(us)	2d\	-l(us)	2a\	-l(us)
=86-	=86-	=86-	=86-	=86-	=86-
1D	San-	1f#X	So-	1a	San-
!	!	!	!	!LO:TX:t=P:problem:♯ above	!
2E\	.	2e\	-l(us)	2g#X\	-ct(us)
=87-	=87-	=87-	=87-	=87-	=87-
1AA	-ct(us)	1c	S(an)-	1a	tu
2F#X\	tu	2d\	-t(us)	2a\	ſo-
=88-	=88-	=88-	=88-	=88-	=88-
!	!	!	!	!LO:TX:t=P:problem:♯ above	!
1E	so-	2B\	tu	1g#X	-l(us)
.	.	2e\	So-	.	.
!	!	!	!	!LO:TX:t=P:problem:♯ above	!
2D/	-l(us)	2A/	-l(us)	2f#X\	.
=89-	=89-	=89-	=89-	=89-	=89-
!	!	!LO:TX:t=P:problem:♯ above	!	!	!
1AA	So-	1c#X	So-	1a	Do-
!	!	!	!	!LO:TX:t=P:problem:♯ above	!
2BBny/	-l(us)	2d\	-l(us)	2f#X\	-mi-
=90-	=90-	=90-	=90-	=90-	=90-
!	!	!LO:TX:t=P:problem:♯ above	!	!	!
1F#	Do-	1c#X	So-	1f#	-n(us)
2G\	-mi-	2B\	-l(us)	2d\	tu
=91-	=91-	=91-	=91-	=91-	=91-
1D	-n(us)	2.A/	D(o-	1d	ſo-
.	.	4A/	-mi)-	.	.
2D/	tu	2A/	-n(us)	2d\	-l(us)
=92-	=92-	=92-	=92-	=92-	=92-
1D	So-	1d	Tu	1d	So-
!	!	!LO:SIC:v:t=custos d	!	!	!
2D/	-l(us)	2A/	So-	2d\	-l(us)
=93-	=93-	=93-	=93-	=93-	=93-
!	!	!LO:PB:g=original	!	!	!
1D	tu so-	1d	-l(us)	1f#X	al-
2E\	-l(us)	2B\	al-	2e\	.
=94-	=94-	=94-	=94-	=94-	=94-
!LO:LB:g=original	!	!	!	!	!
2F#X\	al-	2d\	-tiſ-	1d	tiſ-
2G\	-tiſ-	2.e\	.	.	.
!	!	!	!	!LO:SIC:v:s=2c#	!
2A\	-si-	.	.	2c/	-ſi-
.	.	4A/	-si-	.	.
=95-	=95-	=95-	=95-	=95-	=95-
1D	-m(us)	1A	-m(us)	1.d	-m(us)
2D/	tu	2A/	tu	.	.
=96-	=96-	=96-	=96-	=96-	=96-
!	!	!	!	!LO:LB:g=original	!
1D	So-	2d\	So-	1f#X	So-
.	.	2d\	-l(us)	.	.
2E\	-l(uſ)	2B\	al-	2e\	-l(us)
=97-	=97-	=97-	=97-	=97-	=97-
2F#X\	al-	2d\	-tiſ-	2d\	al-
2G\	-tiſ-	2.e\	.	2d\	-tiſ-
!	!	!	!	!LO:TX:t=P:problem:♯ above	!
2A\	-si-	.	.	2c#X/	-si-
.	.	4A/	-si-	.	.
=98-	=98-	=98-	=98-	=98-	=98-
*M2/1	*	*M2/1	*	*M2/1	*
*met(C|)	*	*met(C|)	*	*met(C|)	*
2D/	-m(us)	2A/	-m(us)	2d\	-m(us)
!	!	!	!	!LO:TX:t=P:problem:♯ above	!
1D	Je-	2d\	JE-	1f#X	Je-
.	.	1d	-ſu	.	.
2BB/	-ſu	.	.	2.gny\	.
=99-	=99-	=99-	=99-	=99-	=99-
2.C/	Chri-	2e\	Chri-	.	.
.	.	.	.	4fny\	.
.	.	2cny\	.	2e\	-su
4D/	.	.	.	.	.
1E	.	1B	.	1e	X-
=100-	=100-	=100-	=100-	=100-	=100-
2AA/	-ste	2c\	-ſte	2e\	-(t)e
*	*ij	*	*ij	*	*
1A	Je-	2.c\	JE-	1e	Je-
.	.	4c\	-ſu	.	.
2E\	ſu	2.e\	Chri-	2g\	-su
=101-	=101-	=101-	=101-	=101-	=101-
2Fny\	Chri-	.	.	2.a\	Chri-
.	.	8d\L	.	.	.
.	.	8c\J	.	.	.
2G\	.	1d	.	.	.
.	.	.	.	8g\L	.
.	.	.	.	8f\J	.
2A\	.	.	.	1e	.
!LO:SIC:v:t=custos C	!	!LO:TX:t=P:problem:♯ above	!	!	!
2AA/	-ste	2c#X\	.	.	.
*	*Xij	*	*	*	*
=102-	=102-	=102-	=102-	=102-	=102-
*M3/2	*	*M3/2	*	*M3/2	*
*	*	*	*	*met(C)	*
!LO:LB:g=original	!	!LO:LB:g=original	!	!	!
1D	cu(m)	1d	-ſte	1f#X	-ste
*	*	*	*Xij	*	*
!	!	!	!	!LO:TX:t=P:problem:♯ above	!
2D/	S(an)-	2d\	cu(m)	2f#X\	cu(m)
=103-	=103-	=103-	=103-	=103-	=103-
1D	-cto	2d\	S(an)-	1f#y	S(an)-
.	.	2d\	-cto	.	.
*	*	*	*ij	*	*
2BB/	San-	2d\	cum	2g\	-cto
=104-	=104-	=104-	=104-	=104-	=104-
4AA/	.	1e	San-	1a	S(an)-
4BB/	.	.	.	.	.
4C/	.	.	.	.	.
4D/	.	.	.	.	.
2E\	.	2cny\	-cto	2g\	-cto
*	*	*	*Xij	*	*
=105-	=105-	=105-	=105-	=105-	=105-
!	!	!LO:N:vis=2	!	!LO:LB:g=original	!
2F\	-cto	1d	Spi-	1fny	Spi-
2D/	Spi-	.	.	.	.
2E\	-ri-	2B\	-ri-	2e\	-ri-
=106-	=106-	=106-	=106-	=106-	=106-
1AA	-tu	1c#X	-tu	1e	-tu
2AA/	in	2c#\	in	2e\	in
=107-	=107-	=107-	=107-	=107-	=107-
2A\	gl(o-	2e\	glo-	2a\	glo-
4E\	-ri)-	4e\	-ri-	4g\	-ri-
4E\	-a	4e\	-a	4g\	-a
2F\	De-	2cny\	DE-	2f\	De
=108-	=108-	=108-	=108-	=108-	=108-
1C	-i	1c	-i	2.e\	.
.	.	.	.	4cny\	i
*	*ij	*	*ij	*	*
2C/	in	2c\	in	4d\	in
.	.	.	.	4e\	.
=109-	=109-	=109-	=109-	=109-	=109-
2F\	glo-	2c\	glo-	2f\	glo-
4C/	-ri-	4c\	-ri-	4e\	-ri-
4C/	-a	4c\	-a	4e\	-a
*	*	*	*Xij	*	*
2D/	De-	2A/	DE-	2d\	De-
=110-	=110-	=110-	=110-	=110-	=110-
1AA	-i	1.A	-i	2.c#X/	-i
*	*Xij	*	*	*	*
.	.	.	.	4A/	.
2AA/	Pa-	.	.	4B/	.
!	!	!	!	!LO:TX:b:t=P:problem:♯ below	!
.	.	.	.	4c#X/	.
=111-	=111-	=111-	=111-	=111-	=111-
2FF/	.	2d\	De-	2d\	Pa-
2GG/	-tris	2.e\	-i	2d\	-tris
!	!	!	!	!LO:TX:t=P:problem:♯ above	!
2AA/	a-	.	.	2c#X/	a-
.	.	4A/	Pa-	.	.
=112-	=112-	=112-	=112-	=112-	=112-
!LO:LB:g=original	!	!	!	!	!
1D	-men	1A	-tris	1d	-men
2D/	in	2d\	in	2f\	in
=113-	=113-	=113-	=113-	=113-	=113-
!	!	!LO:LB:g=original	!	!	!
2.D/	glo-	2.d\	glo-	2.f\	gl(-
4D/	-ri-	4d\	-ri-	4f\	-ri)-
2E\	-a	2B\	-a	2e\	-a
=114-	=114-	=114-	=114-	=114-	=114-
!LO:TX:t=P:problem:brak taktu	!	!	!	!	!
!LO:TX:b:t=Dei	!	!	!	!	!
1.ryy	.	2A/	De-	2cny/	DE-
.	.	2d\	.	2f\	.
.	.	2B\	-i	2e\	-I
=115-	=115-	=115-	=115-	=115-	=115-
!	!	!	!	!LO:LB:g=original	!
2F\	Pa-	2A/	Pa-	2c/	Pa-
2D/	.	1B	.	2f\	.
2E\	.	.	.	2e\	-tris
=116-	=116-	=116-	=116-	=116-	=116-
2AA,/	-tris	1.c	-tris	2.e\	a-
2AA/	a-	.	.	.	.
.	.	.	.	4f\	.
2AA/	-men	.	.	4g\	.
.	.	.	.	4e\	.
=117-	=117-	=117-	=117-	=117-	=117-
2A\	a-	1e	a-	2a\	.
2E\	.	.	.	2g\	.
2F\	-men	2c\	.	2f\	-men
=118-	=118-	=118-	=118-	=118-	=118-
2C/	a-	1.c	-men	4e\	a-
.	.	.	.	4d\	.
2C/	-men	.	.	4e\	.
.	.	.	.	4c/	.
2C/	a-	.	.	4d\	.
.	.	.	.	4e\	.
=119-	=119-	=119-	=119-	=119-	=119-
*	*	*	*ij	*	*
2F\	-men	1c	a-	2f\	.
2C/	a-	.	.	2e\	.
2D/	.	2A/	.	2d\	-men
=120-	=120-	=120-	=120-	=120-	=120-
2AA/	.	1.A	-men	4c/	a-
*	*	*	*Xij	*	*
.	.	.	.	4B/	.
2AA/	-men	.	.	4c/	.
.	.	.	.	4A/	.
*	*ij	*	*	*	*
2AA/	a-	.	.	4B/	.
.	.	.	.	4c/	.
=121-	=121-	=121-	=121-	=121-	=121-
2FF/	.	2d\	a-	1d	.
2GG/	.	2.e\	.	.	.
2AA/	.	.	.	2c/	.
.	.	4A/	.	.	.
=122-	=122-	=122-	=122-	=122-	=122-
*M2/1	*	*M2/1	*	*M2/1	*
*met(C|)	*	*met(C|)	*	*met(C|)	*
!LO:SIC:v:t=custos BB	!	!	!	!	!
2D/	-men	2A/	-men	2.d\	-men
*	*Xij	*	*	*	*
!LO:LB:g=original	!	!	!	!	!
!LO:SIC:v:s=1BB-	!	!	!	!	!
1BB	a-	1B-X	a-	.	.
.	.	.	.	4e\	.
.	.	.	.	4f\	a-
.	.	.	.	4g\	.
2F#X\	-men	2A/	.	1a\	.
=123-	=123-	=123-	=123-	=123-	=123-
*lig	*	*	*	*	*
1G	a-	2.Bny\	men	.	.
.	.	.	.	4g\	.
!	!	!	!	!LO:SIC:v:t=custos g	!
.	.	4c\	.	4f\	.
*	*	*	*ij	*	*
!	!	!	!	!LO:LB:g=original	!
1GG	.	1d	a-	4g\	.
.	.	.	.	4e\	.
.	.	.	.	1g\	.
*Xlig	*	*	*	*	*
=124-	=124-	=124-	=124-	=124-	=124-
0D;;	-men	0d;;	-men	.	.
*	*	*	*Xij	*	*
!	!	!	!	!LO:TX:a:t=P:problem:# above	!
.	.	.	.	4f#X\	.
!	!	!	!	!LO:TX:a:t=P:problem:# above	!
!	!	!	!	!LO:N:acc=#	!
.	.	.	.	4en\	.
!	!	!	!	!LO:N:vis=0	!
.	.	.	.	1f#X;;	-men
=-	=-	=-	=-	=-	=-
*-	*-	*-	*-	*-	*-
!!!system-decoration: [(s1,s2,s3)]
!!!RDF**kern: < = below
!!!RDF**kern: > = above
!!!ENC: Marta Chmielewska
!!!END: 2021-07-09
!!!ENC: Krzysztof Stępień
!!!END: 2021-06-28
